X:1
T:The Sloe
K:D
r:32
M: 2/4
R: Polka
Z: B Rowe for Warwick Folk 
A2 | "D"d3A d2e2 | f3e d2c2 | "G"B3A BcdB | "A"A2F2 E2D2 | 
"D"d3A d2e2 | f3e d2c2 | "G"B3A "A"B2c2 | "D"d6 ::
AA | "D"B2A2 F2AA | B2A2 F2dd | "A"d2cc c2BB | B2A2 A2dd | 
"A"d2cc c2ee | "D"e2d2 d2ff | "G"f2ed "A"B2c2 | "D"d6 :|
